meta/xmp/test/acr_sidecar.xmp
<?xpacket begin="﻿" id="W5M0MpCehiHzreSzNTczkc9d"?>
<x:xmpmeta xmlns:x="adobe:ns:meta/" x:xmptk="Adobe XMP Core 5.3-c011 66.145661, 2012/02/06-14:56:27">
 <rdf:RDF xmlns:rdf="http://www.w3.org/1999/02/22-rdf-syntax-ns#">
  <rdf:Description rdf:about=""
    xmlns:dc="http://purl.org/dc/elements/1.1/"
    xmlns:crs="http://ns.adobe.com/camera-raw-settings/1.0/"
    xmlns:xmp="http://ns.adobe.com/xap/1.0/"
    crs:Version="6.7"
    crs:ProcessVersion="6.7"
    crs:WhiteBalance="As Shot"
    crs:Temperature="6404"
    crs:Tint="+4"
    crs:Exposure="+0.15"
    crs:Shadows="5"
    crs:Brightness="+50"
    crs:Contrast="+25"
    crs:ParametricShadows="-20"
    crs:ParametricDarks="-11"
    crs:ParametricLights="+5"
    crs:ParametricHighlights="+4"
    crs:CropTop="0"
    crs:CropLeft="0"
    crs:CropBottom="1"
    crs:CropRight="1"
    crs:HasSettings="True"
    crs:AlreadyApplied="False"
    crs:RawFileName="IMG_9620.CR2"
    xmp:ModifyDate="2012-10-17T13:07:01+03:00"
    xmp:MetadataDate="2012-10-17T13:07:01+03:00"
    dc:format="image/x-canon-cr2" />
 </rdf:RDF>
</x:xmpmeta>
<?xpacket end="w"?>
