xmp/test/samples/crs-corrections-L63A5324.xmp
<x:xmpmeta xmlns:x="adobe:ns:meta/" x:xmptk="Adobe XMP Core 5.3-c007 1.136881, 2010/06/10-18:11:35        ">
 <rdf:RDF xmlns:rdf="http://www.w3.org/1999/02/22-rdf-syntax-ns#">
  <rdf:Description rdf:about=""
    xmlns:xmp="http://ns.adobe.com/xap/1.0/"
    xmlns:tiff="http://ns.adobe.com/tiff/1.0/"
    xmlns:exif="http://ns.adobe.com/exif/1.0/"
    xmlns:aux="http://ns.adobe.com/exif/1.0/aux/"
    xmlns:photoshop="http://ns.adobe.com/photoshop/1.0/"
    xmlns:xmpMM="http://ns.adobe.com/xap/1.0/mm/"
    xmlns:stEvt="http://ns.adobe.com/xap/1.0/sType/ResourceEvent#"
    xmlns:dc="http://purl.org/dc/elements/1.1/"
    xmlns:crs="http://ns.adobe.com/camera-raw-settings/1.0/"
   xmp:ModifyDate="2012-07-26T13:09:56-04:00"
   xmp:CreateDate="2012-06-21T11:00:04.00"
   xmp:CreatorTool="Adobe Photoshop Lightroom 4.1 (Macintosh)"
   xmp:MetadataDate="2012-07-26T13:10:45-04:00"
   tiff:Make="Canon"
   tiff:Model="Canon EOS 5D Mark III"
   tiff:Orientation="8"
   tiff:ImageWidth="5760"
   tiff:ImageLength="3840"
   exif:ExifVersion="0230"
   exif:ExposureTime="1/80"
   exif:ShutterSpeedValue="6321928/1000000"
   exif:FNumber="28/10"
   exif:ApertureValue="2970854/1000000"
   exif:ExposureProgram="1"
   exif:SensitivityType="2"
   exif:RecommendedExposureIndex="800"
   exif:ExposureBiasValue="0/1"
   exif:MaxApertureValue="1/1"
   exif:MeteringMode="3"
   exif:FocalLength="50/1"
   exif:CustomRendered="0"
   exif:ExposureMode="1"
   exif:WhiteBalance="0"
   exif:SceneCaptureType="0"
   exif:FocalPlaneXResolution="5242880/32768"
   exif:FocalPlaneYResolution="5242880/32768"
   exif:FocalPlaneResolutionUnit="4"
   exif:DateTimeOriginal="2012-06-21T11:00:04.00"
   exif:PixelXDimension="5760"
   exif:PixelYDimension="3840"
   aux:SerialNumber="032033007623"
   aux:LensInfo="50/1 50/1 0/0 0/0"
   aux:Lens="EF50mm f/1.4 USM"
   aux:LensID="198"
   aux:LensSerialNumber="0000000000"
   aux:ImageNumber="0"
   aux:FlashCompensation="0/1"
   aux:Firmware="1.1.2"
   photoshop:DateCreated="2012-06-21T11:00:04.00"
   xmpMM:DocumentID="F0AA9DC86FC244DCE52F523BB5D05D60"
   xmpMM:OriginalDocumentID="F0AA9DC86FC244DCE52F523BB5D05D60"
   xmpMM:InstanceID="xmp.iid:0578AF82072068118083BE2FB952BCE2"
   dc:format="image/x-canon-cr2"
   crs:Version="7.1"
   crs:ProcessVersion="6.7"
   crs:WhiteBalance="Custom"
   crs:Temperature="3489"
   crs:Tint="+14"
   crs:Saturation="0"
   crs:Sharpness="23"
   crs:LuminanceSmoothing="9"
   crs:ColorNoiseReduction="25"
   crs:VignetteAmount="0"
   crs:ShadowTint="0"
   crs:RedHue="0"
   crs:RedSaturation="0"
   crs:GreenHue="0"
   crs:GreenSaturation="0"
   crs:BlueHue="0"
   crs:BlueSaturation="0"
   crs:Vibrance="+35"
   crs:HueAdjustmentRed="0"
   crs:HueAdjustmentOrange="0"
   crs:HueAdjustmentYellow="0"
   crs:HueAdjustmentGreen="0"
   crs:HueAdjustmentAqua="0"
   crs:HueAdjustmentBlue="0"
   crs:HueAdjustmentPurple="0"
   crs:HueAdjustmentMagenta="0"
   crs:SaturationAdjustmentRed="0"
   crs:SaturationAdjustmentOrange="-33"
   crs:SaturationAdjustmentYellow="-92"
   crs:SaturationAdjustmentGreen="0"
   crs:SaturationAdjustmentAqua="0"
   crs:SaturationAdjustmentBlue="0"
   crs:SaturationAdjustmentPurple="0"
   crs:SaturationAdjustmentMagenta="0"
   crs:LuminanceAdjustmentRed="0"
   crs:LuminanceAdjustmentOrange="0"
   crs:LuminanceAdjustmentYellow="0"
   crs:LuminanceAdjustmentGreen="0"
   crs:LuminanceAdjustmentAqua="0"
   crs:LuminanceAdjustmentBlue="0"
   crs:LuminanceAdjustmentPurple="0"
   crs:LuminanceAdjustmentMagenta="0"
   crs:SplitToningShadowHue="0"
   crs:SplitToningShadowSaturation="0"
   crs:SplitToningHighlightHue="0"
   crs:SplitToningHighlightSaturation="0"
   crs:SplitToningBalance="0"
   crs:ParametricShadows="-31"
   crs:ParametricDarks="-18"
   crs:ParametricLights="0"
   crs:ParametricHighlights="0"
   crs:ParametricShadowSplit="25"
   crs:ParametricMidtoneSplit="50"
   crs:ParametricHighlightSplit="75"
   crs:SharpenRadius="+1.2"
   crs:SharpenDetail="69"
   crs:SharpenEdgeMasking="70"
   crs:PostCropVignetteAmount="0"
   crs:GrainAmount="0"
   crs:LuminanceNoiseReductionDetail="50"
   crs:ColorNoiseReductionDetail="50"
   crs:LuminanceNoiseReductionContrast="0"
   crs:LensProfileEnable="0"
   crs:LensManualDistortionAmount="0"
   crs:PerspectiveVertical="0"
   crs:PerspectiveHorizontal="0"
   crs:PerspectiveRotate="0.0"
   crs:PerspectiveScale="100"
   crs:AutoLateralCA="0"
   crs:Exposure2012="+0.55"
   crs:Contrast2012="0"
   crs:Highlights2012="-65"
   crs:Shadows2012="+63"
   crs:Whites2012="0"
   crs:Blacks2012="-32"
   crs:Clarity2012="0"
   crs:DefringePurpleAmount="0"
   crs:DefringePurpleHueLo="30"
   crs:DefringePurpleHueHi="70"
   crs:DefringeGreenAmount="0"
   crs:DefringeGreenHueLo="40"
   crs:DefringeGreenHueHi="60"
   crs:ConvertToGrayscale="False"
   crs:ToneCurveName2012="Linear"
   crs:CameraProfile="Adobe Standard"
   crs:CameraProfileDigest="87FB0EDC503E332309FB5DE5C5C65125"
   crs:LensProfileSetup="LensDefaults"
   crs:HasSettings="True"
   crs:CropTop="0.348534"
   crs:CropLeft="0.394303"
   crs:CropBottom="0.763826"
   crs:CropRight="0.809595"
   crs:CropAngle="0"
   crs:CropConstrainToWarp="0"
   crs:HasCrop="True"
   crs:AlreadyApplied="False"
   crs:RawFileName="L63A5324.cr2">
   <exif:ISOSpeedRatings>
    <rdf:Seq>
     <rdf:li>800</rdf:li>
    </rdf:Seq>
   </exif:ISOSpeedRatings>
   <exif:Flash
    exif:Fired="False"
    exif:Return="0"
    exif:Mode="2"
    exif:Function="False"
    exif:RedEyeMode="False"/>
   <xmpMM:History>
    <rdf:Seq>
     <rdf:li
      stEvt:action="saved"
      stEvt:instanceID="xmp.iid:0578AF82072068118083BE2FB952BCE2"
      stEvt:when="2012-07-26T13:10:45-04:00"
      stEvt:softwareAgent="Adobe Photoshop Lightroom 4.1 (Macintosh)"
      stEvt:changed="/metadata"/>
    </rdf:Seq>
   </xmpMM:History>
   <crs:ToneCurvePV2012>
    <rdf:Seq>
     <rdf:li>0, 0</rdf:li>
     <rdf:li>255, 255</rdf:li>
    </rdf:Seq>
   </crs:ToneCurvePV2012>
   <crs:ToneCurvePV2012Red>
    <rdf:Seq>
     <rdf:li>0, 0</rdf:li>
     <rdf:li>255, 255</rdf:li>
    </rdf:Seq>
   </crs:ToneCurvePV2012Red>
   <crs:ToneCurvePV2012Green>
    <rdf:Seq>
     <rdf:li>0, 0</rdf:li>
     <rdf:li>255, 255</rdf:li>
    </rdf:Seq>
   </crs:ToneCurvePV2012Green>
   <crs:ToneCurvePV2012Blue>
    <rdf:Seq>
     <rdf:li>0, 0</rdf:li>
     <rdf:li>255, 255</rdf:li>
    </rdf:Seq>
   </crs:ToneCurvePV2012Blue>
   <crs:PaintBasedCorrections>
    <rdf:Seq>
     <rdf:li>
      <rdf:Description
       crs:What="Correction"
       crs:CorrectionAmount="1.000000"
       crs:CorrectionActive="true"
       crs:LocalExposure="0.000000"
       crs:LocalSaturation="0.000000"
       crs:LocalContrast="0.000000"
       crs:LocalClarity="0.000000"
       crs:LocalSharpness="0.066667"
       crs:LocalBrightness="0.000000"
       crs:LocalToningHue="240.000000"
       crs:LocalToningSaturation="0.000000"
       crs:LocalExposure2012="0.011236"
       crs:LocalContrast2012="0.000000"
       crs:LocalHighlights2012="0.033708"
       crs:LocalShadows2012="0.035294"
       crs:LocalClarity2012="-0.235955"
       crs:LocalLuminanceNoise="0.000000"
       crs:LocalMoire="0.000000"
       crs:LocalDefringe="0.000000"
       crs:LocalTemperature="0.011236"
       crs:LocalTint="-0.054945">
      <crs:CorrectionMasks>
       <rdf:Seq>
        <rdf:li>
         <rdf:Description
          crs:What="Mask/Paint"
          crs:MaskValue="1.000000"
          crs:Radius="0.019315"
          crs:Flow="1.000000"
          crs:CenterWeight="0.155350">
         <crs:Dabs>
          <rdf:Seq>
           <rdf:li>d 0.638995 0.498786</rdf:li>
           <rdf:li>d 0.638506 0.490987</rdf:li>
           <rdf:li>d 0.637750 0.482480</rdf:li>
           <rdf:li>d 0.637127 0.473903</rdf:li>
           <rdf:li>d 0.636505 0.465598</rdf:li>
           <rdf:li>d 0.635601 0.457302</rdf:li>
           <rdf:li>d 0.632122 0.451154</rdf:li>
           <rdf:li>d 0.627348 0.447457</rdf:li>
           <rdf:li>d 0.621811 0.446524</rdf:li>
           <rdf:li>d 0.616016 0.446524</rdf:li>
           <rdf:li>d 0.610989 0.449305</rdf:li>
           <rdf:li>d 0.607149 0.455063</rdf:li>
           <rdf:li>d 0.602968 0.459590</rdf:li>
           <rdf:li>d 0.598007 0.462777</rdf:li>
           <rdf:li>d 0.592804 0.466122</rdf:li>
           <rdf:li>d 0.589185 0.471027</rdf:li>
           <rdf:li>d 0.587794 0.478909</rdf:li>
           <rdf:li>d 0.585617 0.486835</rdf:li>
           <rdf:li>d 0.584374 0.495224</rdf:li>
           <rdf:li>d 0.582934 0.503565</rdf:li>
           <rdf:li>d 0.582336 0.512111</rdf:li>
           <rdf:li>d 0.583248 0.520617</rdf:li>
           <rdf:li>d 0.584631 0.529049</rdf:li>
           <rdf:li>d 0.585887 0.537531</rdf:li>
           <rdf:li>d 0.587719 0.545718</rdf:li>
           <rdf:li>d 0.589404 0.553871</rdf:li>
           <rdf:li>d 0.592311 0.561369</rdf:li>
           <rdf:li>d 0.594904 0.568894</rdf:li>
           <rdf:li>d 0.599663 0.573831</rdf:li>
           <rdf:li>d 0.605078 0.576245</rdf:li>
           <rdf:li>d 0.610872 0.576245</rdf:li>
           <rdf:li>d 0.616664 0.576213</rdf:li>
           <rdf:li>d 0.622142 0.573477</rdf:li>
           <rdf:li>d 0.627292 0.569617</rdf:li>
           <rdf:li>d 0.630279 0.563124</rdf:li>
           <rdf:li>d 0.630443 0.554534</rdf:li>
           <rdf:li>d 0.630901 0.546127</rdf:li>
           <rdf:li>d 0.630901 0.537436</rdf:li>
           <rdf:li>d 0.630901 0.528744</rdf:li>
           <rdf:li>d 0.630901 0.520052</rdf:li>
           <rdf:li>d 0.630901 0.511360</rdf:li>
           <rdf:li>d 0.630901 0.502669</rdf:li>
           <rdf:li>d 0.632729 0.500592</rdf:li>
           <rdf:li>d 0.637298 0.503196</rdf:li>
           <rdf:li>d 0.640424 0.496919</rdf:li>
           <rdf:li>d 0.646218 0.496919</rdf:li>
           <rdf:li>d 0.652013 0.496919</rdf:li>
           <rdf:li>d 0.657737 0.497573</rdf:li>
           <rdf:li>d 0.663501 0.497852</rdf:li>
           <rdf:li>d 0.669295 0.497852</rdf:li>
           <rdf:li>d 0.675090 0.497852</rdf:li>
           <rdf:li>d 0.680711 0.497593</rdf:li>
           <rdf:li>d 0.682353 0.489537</rdf:li>
           <rdf:li>d 0.683612 0.481077</rdf:li>
           <rdf:li>d 0.685692 0.473030</rdf:li>
           <rdf:li>d 0.686938 0.466585</rdf:li>
           <rdf:li>d 0.687560 0.475125</rdf:li>
           <rdf:li>d 0.687560 0.483817</rdf:li>
           <rdf:li>d 0.687560 0.492509</rdf:li>
           <rdf:li>d 0.687560 0.501200</rdf:li>
           <rdf:li>d 0.687164 0.509646</rdf:li>
           <rdf:li>d 0.686938 0.509238</rdf:li>
           <rdf:li>d 0.687666 0.500637</rdf:li>
           <rdf:li>d 0.688222 0.492017</rdf:li>
           <rdf:li>d 0.689428 0.483585</rdf:li>
           <rdf:li>d 0.691008 0.475384</rdf:li>
           <rdf:li>d 0.692541 0.467167</rdf:li>
           <rdf:li>d 0.693786 0.459560</rdf:li>
           <rdf:li>d 0.694409 0.462324</rdf:li>
           <rdf:li>d 0.694409 0.471016</rdf:li>
          </rdf:Seq>
         </crs:Dabs>
         </rdf:Description>
        </rdf:li>
       </rdf:Seq>
      </crs:CorrectionMasks>
      </rdf:Description>
     </rdf:li>
     <rdf:li>
      <rdf:Description
       crs:What="Correction"
       crs:CorrectionAmount="1.000000"
       crs:CorrectionActive="true"
       crs:LocalExposure="0.000000"
       crs:LocalSaturation="0.000000"
       crs:LocalContrast="0.000000"
       crs:LocalClarity="0.000000"
       crs:LocalSharpness="0.066667"
       crs:LocalBrightness="0.000000"
       crs:LocalToningHue="240.000000"
       crs:LocalToningSaturation="0.000000"
       crs:LocalExposure2012="0.011236"
       crs:LocalContrast2012="0.000000"
       crs:LocalHighlights2012="0.033708"
       crs:LocalShadows2012="0.035294"
       crs:LocalClarity2012="0.182796"
       crs:LocalLuminanceNoise="0.000000"
       crs:LocalMoire="0.000000"
       crs:LocalDefringe="0.000000"
       crs:LocalTemperature="0.011236"
       crs:LocalTint="-0.054945">
      <crs:CorrectionMasks>
       <rdf:Seq>
        <rdf:li>
         <rdf:Description
          crs:What="Mask/Paint"
          crs:MaskValue="1.000000"
          crs:Radius="0.019315"
          crs:Flow="1.000000"
          crs:CenterWeight="0.155350">
         <crs:Dabs>
          <rdf:Seq>
           <rdf:li>d 0.660165 0.526783</rdf:li>
           <rdf:li>d 0.662406 0.533129</rdf:li>
           <rdf:li>d 0.663278 0.541667</rdf:li>
          </rdf:Seq>
         </crs:Dabs>
         </rdf:Description>
        </rdf:li>
        <rdf:li>
         <rdf:Description
          crs:What="Mask/Paint"
          crs:MaskValue="1.000000"
          crs:Radius="0.019315"
          crs:Flow="1.000000"
          crs:CenterWeight="0.155350">
         <crs:Dabs>
          <rdf:Seq>
           <rdf:li>d 0.662655 0.454923</rdf:li>
           <rdf:li>d 0.662032 0.463228</rdf:li>
           <rdf:li>d 0.662032 0.471920</rdf:li>
           <rdf:li>d 0.662032 0.480611</rdf:li>
          </rdf:Seq>
         </crs:Dabs>
         </rdf:Description>
        </rdf:li>
       </rdf:Seq>
      </crs:CorrectionMasks>
      </rdf:Description>
     </rdf:li>
    </rdf:Seq>
   </crs:PaintBasedCorrections>
  </rdf:Description>
 </rdf:RDF>
</x:xmpmeta>
